X: 1
T:You're A Grand Old Flag!
C:George M. Cohan
M:2/4
L:1/4
K:Fmaj
c/2A/2|:"F"FF | F D/2C/2| F/2G E/2 | F D/2C/2|F D/2C/2 | F D/2C/2|"C7"E2 | z C/2D/2| EF | G3/2C/2|"F"FG | A3/2 F/2|"G7"G/2A F/2 | G/2A F/2|"C7"G2 | z c/2A/2|
"F"FF | F D/2C/2| F/2G E/2 | F E/2_E/2|"D7"D^F/2A/2 | D A|"G7"G2 | "C7"z C/2C/2| "F"F3/2E/2 | FA|"C7"G3/2 ^F/2 | G C/2C/2|"Bb"D/2 F D/2 | "C7"FE| "F"F2- |[1 F/2 z/2 c/2A/2:|[2 F2 |]

